src/svgs/stretcher.svg

<svg xmlns="http://www.w3.org/2000/svg" viewBox="0 0 24 24" width="512" height="512"><path d="M17 0v2H7V0H5v24h2v-2h10v2h2V0zm-5 4a2 2 0 11-2 2 2 2 0 012-2zm5 7h-2v8a1 1 0 01-2 0v-3h-2v3a1 1 0 01-2 0v-8H7V9h10z"/></svg>

<svg xmlns="http://www.w3.org/2000/svg" viewBox="0 0 24 24"><path d="M17,0V2H7V0H5V24H7V22H17v2h2V0ZM12,4a2,2,0,1,1-2,2A2,2,0,0,1,12,4Zm5,7H15v8a1,1,0,0,1-2,0V16H11v3a1,1,0,0,1-2,0V11H7V9H17Z"/></svg>
